X: 16740
T: Hardiman The Fiddler
R: slip jig
M: 9/8
K: Adorian
|:Bee def f2g|Bee ege dBA|Bee def g2a|bge ege dBA:|
|:B2A GAB G2A|BAB GAB dBA|BAB A2B G2A|Bee ege dBA:|

